public/integrations/chrome.svg

<svg width="48" height="48" viewBox="0 0 48 48" version="1.1" xmlns="http://www.w3.org/2000/svg" xmlns:xlink="http://www.w3.org/1999/xlink">
<title>Group</title>
<desc>Created using Figma</desc>
<g id="Canvas" transform="translate(-16691 265)">
<g id="Group">
<g id="Vector">
<use xlink:href="#path0_fill" transform="translate(16691.4 -264.533)" fill="#FFFFFF"/>
</g>
<g id="Vector">
<use xlink:href="#path1_fill" transform="translate(16706.2 -249.714)" fill="url(#paint1_linear)"/>
</g>
<g id="Vector">
<use xlink:href="#path2_fill" transform="translate(16695.1 -265)" fill="url(#paint2_linear)"/>
</g>
<g id="Vector">
<use xlink:href="#path3_fill" transform="translate(16691 -254.439)" fill="url(#paint3_linear)"/>
</g>
<g id="Vector">
<use xlink:href="#path4_fill" transform="translate(16713.1 -251.647)" fill="url(#paint4_linear)"/>
</g>
<g id="Vector">
<use xlink:href="#path5_fill" transform="translate(16695.1 -255.083)" fill="url(#paint5_linear)"/>
</g>
<g id="Vector">
<use xlink:href="#path6_fill" transform="translate(16712.7 -234.25)" fill="url(#paint6_linear)"/>
</g>
<g id="Vector">
<use xlink:href="#path7_fill" transform="translate(16714.8 -251.647)" fill="url(#paint7_linear)"/>
</g>
</g>
</g>
<defs>
<linearGradient id="paint1_linear" x1="0" y1="0" x2="1" y2="0" gradientUnits="userSpaceOnUse" gradientTransform="matrix(0 17.5907 17.5907 0 0.00768163 0.0292969)">
<stop offset="0" stop-color="#81B4E0"/>
<stop offset="1" stop-color="#0C5A94"/>
</linearGradient>
<linearGradient id="paint2_linear" x1="0" y1="0" x2="1" y2="0" gradientUnits="userSpaceOnUse" gradientTransform="matrix(0 19.5441 19.5441 0 10.9535 0.0373025)">
<stop offset="0" stop-color="#F06B59"/>
<stop offset="1" stop-color="#DF2227"/>
</linearGradient>
<linearGradient id="paint3_linear" x1="0" y1="0" x2="1" y2="0" gradientUnits="userSpaceOnUse" gradientTransform="matrix(9.87903 -16.3218 -16.3218 -9.87903 14.0141 35.5669)">
<stop offset="0" stop-color="#388B41"/>
<stop offset="1" stop-color="#4CB749"/>
</linearGradient>
<linearGradient id="paint4_linear" x1="0" y1="0" x2="1" y2="0" gradientUnits="userSpaceOnUse" gradientTransform="matrix(-10.5234 -25.3421 -25.3421 10.5234 29.5024 24.3098)">
<stop offset="0" stop-color="#E4B022"/>
<stop offset="0.3" stop-color="#FCD209"/>
</linearGradient>
<linearGradient id="paint5_linear" x1="0" y1="0" x2="1" y2="0" gradientUnits="userSpaceOnUse" gradientTransform="matrix(-0 -17.181 -17.181 -0 13.6381 16.7518)">
<stop offset="0" stop-color="#000000" stop-opacity="0.15"/>
<stop offset="0.3" stop-color="#000000" stop-opacity="0.06"/>
<stop offset="1" stop-color="#000000" stop-opacity="0.03"/>
</linearGradient>
<linearGradient id="paint6_linear" x1="0" y1="0" x2="1" y2="0" gradientUnits="userSpaceOnUse" gradientTransform="matrix(-11.8117 12.0265 12.0265 11.8117 5.13889 -4.43857)">
<stop offset="0" stop-color="#000000" stop-opacity="0.15"/>
<stop offset="0.3" stop-color="#000000" stop-opacity="0.06"/>
<stop offset="1" stop-color="#000000" stop-opacity="0.03"/>
</linearGradient>
<linearGradient id="paint7_linear" x1="0" y1="0" x2="1" y2="0" gradientUnits="userSpaceOnUse" gradientTransform="matrix(1.71815 -16.9656 -16.9656 -1.71815 17.3158 23.1828)">
<stop offset="0" stop-color="#000000" stop-opacity="0.15"/>
<stop offset="0.3" stop-color="#000000" stop-opacity="0.06"/>
<stop offset="1" stop-color="#000000" stop-opacity="0.03"/>
</linearGradient>
<path id="path0_fill" d="M 23.6241 47.2483C 36.6714 47.2483 47.2483 36.6714 47.2483 23.6241C 47.2483 10.5769 36.6714 0 23.6241 0C 10.5769 0 0 10.5769 0 23.6241C 0 36.6714 10.5769 47.2483 23.6241 47.2483Z"/>
<path id="path1_fill" d="M 8.8052 17.6104C 13.6682 17.6104 17.6104 13.6682 17.6104 8.8052C 17.6104 3.94222 13.6682 0 8.8052 0C 3.94222 0 0 3.94222 0 8.8052C 0 13.6682 3.94222 17.6104 8.8052 17.6104Z"/>
<path id="path2_fill" d="M 41.4494 13.3531C 35.5366 1.4571 21.1001 -3.39341 9.20387 2.519C 5.49453 4.36243 2.32419 7.13258 9.29574e-08 10.5612L 9.66447 27.313C 7.88487 21.656 11.028 15.6269 16.6851 13.847C 17.6801 13.5341 18.7153 13.3677 19.7583 13.3531"/>
<path id="path3_fill" d="M 4.07631 5.13479e-07C -3.32054 11.0347 -0.37198 25.976 10.6622 33.3734C 14.0761 35.662 18.0197 37.0378 22.1163 37.3692L 32.2107 20.1884C 28.4361 24.7632 21.6687 25.4116 17.0941 21.6375C 15.5403 20.3558 14.3782 18.663 13.7407 16.7523"/>
<path id="path4_fill" d="M -8.14484e-07 34.5771C 13.2465 35.5784 24.7968 25.6518 25.7986 12.4053C 26.1219 8.13116 25.2968 3.8483 23.409 1.59356e-07L 1.7181 1.59356e-07C 7.648 0.0273419 12.434 4.85704 12.4067 10.7878C 12.3955 13.1871 11.5813 15.5136 10.0937 17.3962"/>
<path id="path5_fill" d="M 9.29574e-08 0.644453L 9.66447 17.3963C 8.94858 14.987 9.10052 12.4029 10.0938 10.0941L 0.429345 3.98389e-07"/>
<path id="path6_fill" d="M 0.429634 17.1808L 10.524 9.91546e-07C 8.93117 1.89906 6.73071 3.1889 4.29548 3.65081L 5.84304e-07 17.1808"/>
<path id="path7_fill" d="M 21.6912 -2.74446e-07L -6.37422e-07 -2.74446e-07C 3.2673 0.0152299 6.34996 1.51707 8.37564 4.08066L 22.1205 0.644671"/>
</defs>
</svg>

<svg width="48" height="48" xmlns="http://www.w3.org/2000/svg" xmlns:xlink="http://www.w3.org/1999/xlink"><use xlink:href="#a" transform="translate(.4 .467)" fill="#FFF"/><use xlink:href="#b" transform="translate(15.2 15.286)" fill="url(#c)"/><use xlink:href="#d" transform="translate(4.1)" fill="url(#e)"/><use xlink:href="#f" transform="translate(0 10.561)" fill="url(#g)"/><use xlink:href="#h" transform="translate(22.1 13.353)" fill="url(#i)"/><use xlink:href="#j" transform="translate(4.1 9.917)" fill="url(#k)"/><use xlink:href="#l" transform="translate(21.7 30.75)" fill="url(#m)"/><use xlink:href="#n" transform="translate(23.8 13.353)" fill="url(#o)"/><defs><path id="a" d="M23.624 47.248c13.047 0 23.624-10.577 23.624-23.624C47.248 10.577 36.671 0 23.624 0 10.577 0 0 10.577 0 23.624c0 13.047 10.577 23.624 23.624 23.624Z"/><path id="b" d="M8.805 17.61a8.805 8.805 0 1 0 0-17.61 8.805 8.805 0 0 0 0 17.61Z"/><path id="d" d="M41.45 13.353C35.536 1.457 21.1-3.393 9.203 2.52A24.05 24.05 0 0 0 0 10.561l9.664 16.752c-1.78-5.657 1.364-11.686 7.021-13.466.995-.313 2.03-.48 3.073-.494"/><path id="f" d="M4.076 0C-3.32 11.035-.372 25.976 10.662 33.373a24.054 24.054 0 0 0 11.454 3.996l10.095-17.18c-3.775 4.574-10.542 5.223-15.117 1.448a10.739 10.739 0 0 1-3.353-4.885"/><path id="h" d="M0 34.577c13.246 1.001 24.797-8.925 25.799-22.172A24.049 24.049 0 0 0 23.409 0H1.719a10.74 10.74 0 0 1 8.376 17.396"/><path id="j" d="m0 .644 9.664 16.752a10.738 10.738 0 0 1 .43-7.302L.429 0"/><path id="l" d="M.43 17.18 10.524 0a10.742 10.742 0 0 1-6.229 3.65L0 17.18"/><path id="n" d="M21.691 0H0a10.739 10.739 0 0 1 8.376 4.08L22.12.646"/><linearGradient id="c" x1="0" y1="0" x2="1" y2="0" gradientUnits="userSpaceOnUse" gradientTransform="matrix(0 17.5907 17.5907 0 .008 .03)"><stop offset="0" stop-color="#81B4E0"/><stop offset="1" stop-color="#0C5A94"/></linearGradient><linearGradient id="e" x1="0" y1="0" x2="1" y2="0" gradientUnits="userSpaceOnUse" gradientTransform="matrix(0 19.5441 19.5441 0 10.954 .037)"><stop offset="0" stop-color="#F06B59"/><stop offset="1" stop-color="#DF2227"/></linearGradient><linearGradient id="g" x1="0" y1="0" x2="1" y2="0" gradientUnits="userSpaceOnUse" gradientTransform="scale(19.07869 -19.07869) rotate(58.815 2.021 -.28)"><stop offset="0" stop-color="#388B41"/><stop offset="1" stop-color="#4CB749"/></linearGradient><linearGradient id="i" x1="0" y1="0" x2="1" y2="0" gradientUnits="userSpaceOnUse" gradientTransform="scale(-27.4402 27.4402) rotate(-67.449 .126 1.248)"><stop offset="0" stop-color="#E4B022"/><stop offset=".3" stop-color="#FCD209"/></linearGradient><linearGradient id="k" x1="0" y1="0" x2="1" y2="0" gradientUnits="userSpaceOnUse" gradientTransform="scale(17.181) rotate(-90 .884 .09)"><stop offset="0" stop-opacity=".15"/><stop offset=".3" stop-opacity=".06"/><stop offset="1" stop-opacity=".03"/></linearGradient><linearGradient id="m" x1="0" y1="0" x2="1" y2="0" gradientUnits="userSpaceOnUse" gradientTransform="scale(-16.8568 16.8568) rotate(45.516 .161 -.495)"><stop offset="0" stop-opacity=".15"/><stop offset=".3" stop-opacity=".06"/><stop offset="1" stop-opacity=".03"/></linearGradient><linearGradient id="o" x1="0" y1="0" x2="1" y2="0" gradientUnits="userSpaceOnUse" gradientTransform="scale(17.05238 -17.05238) rotate(84.217 1.26 -.118)"><stop offset="0" stop-opacity=".15"/><stop offset=".3" stop-opacity=".06"/><stop offset="1" stop-opacity=".03"/></linearGradient></defs></svg>
